ix/repeate-music_twotone.svg

<svg viewBox="0 0 24 24" fill="none" xmlns="http://www.w3.org/2000/svg" height="1em" width="1em">
  <path d="M14.0002 3L16.4402 5.34003L8.49023 5.32001C4.92023 5.32001 1.99023 8.25003 1.99023 11.84C1.99023 13.63 2.72022 15.26 3.90022 16.44" stroke="#292D32" stroke-width="1.5" stroke-linecap="round" stroke-linejoin="round"/>
  <path d="M10.0005 21.0001L7.56055 18.66L15.5105 18.6801C19.0805 18.6801 22.0105 15.75 22.0105 12.16C22.0105 10.37 21.2806 8.74006 20.1006 7.56006" stroke="#292D32" stroke-width="1.5" stroke-linecap="round" stroke-linejoin="round"/>
  <path opacity="0.4" d="M9 12H15" stroke="#292D32" stroke-width="1.5" stroke-linecap="round" stroke-linejoin="round"/>
</svg>

<svg viewBox="0 0 24 24" fill="none" xmlns="http://www.w3.org/2000/svg" height="1em" width="1em">
  <path d="m14 3 2.44 2.34-7.95-.02c-3.57 0-6.5 2.93-6.5 6.52 0 1.79.73 3.42 1.91 4.6M10 21l-2.44-2.34 7.95.02c3.57 0 6.5-2.93 6.5-6.52 0-1.79-.73-3.42-1.91-4.6" stroke="#292D32" stroke-width="1.5" stroke-linecap="round" stroke-linejoin="round"/>
  <path opacity=".4" d="M9 12h6" stroke="#292D32" stroke-width="1.5" stroke-linecap="round" stroke-linejoin="round"/>
</svg>
